X: 17
T: the Cliffs of Moher
R: jig
Z: 2012 John Chambers <jc@trillian.mit.edu>
B: "100 Essential Irish Session Tunes" 1995 Dave Mallinson, ed.
M: 6/8
L: 1/8
K: Ador
|:\
"Am"a3 bag | eaf "G"ged | "F"c2A "Em"BAG | EFG "Am"ABd |\
"Am"a2a bag | eaf "G"ged | "F"c2A "Em"BAG | EFG "Am"A3 :|
"Am"efe dBA | efe dBA | "G"GAB dBA | GAB dBd |\
"Am"efe dBA | efe dBA | "G"GAB dBG | "Em"EFG "Am"A3 |]
"Am"efe dBA | efe dBA | "G"GAB dBA | GAB dBd |\
"Am"efe "D"dee | "C"cee "Em"Bee | "C"EFG "G"BAG | "E7"EDB, "Am"A,3 |]

%%sep 2 1 500
%%sep 1 1 500

